public/media/icon-rss-invert.svg

<svg fill="none" height="16" viewBox="0 0 16 16" width="16" xmlns="http://www.w3.org/2000/svg"><path clip-rule="evenodd" d="m1 2.5c6.76549 0 12.25 5.48451 12.25 12.25h1.5c0-7.59392-6.15608-13.75-13.75-13.75zm7.25 12.25c0-4.0041-3.24594-7.25-7.25-7.25v-1.5c4.83249 0 8.75 3.91751 8.75 8.75zm-5 0c0-1.2426-1.00736-2.25-2.25-2.25v-1.5c2.07107 0 3.75 1.6789 3.75 3.75z" fill="#fff" fill-rule="evenodd"/></svg>

<svg width="16" height="16" viewBox="0 0 16 16" fill="none" xmlns="http://www.w3.org/2000/svg">
<path fill-rule="evenodd" clip-rule="evenodd" d="M1 2.5C7.76549 2.5 13.25 7.98451 13.25 14.75H14.75C14.75 7.15608 8.59392 1 1 1V2.5ZM8.25 14.75C8.25 10.7459 5.00406 7.5 1 7.5V6C5.83249 6 9.75 9.91751 9.75 14.75H8.25ZM3.25 14.75C3.25 13.5074 2.24264 12.5 1 12.5V11C3.07107 11 4.75 12.6789 4.75 14.75H3.25Z" fill="white"/>
</svg>
